public/img/social/inst.svg

<svg width="17" height="17" viewBox="0 0 17 17" fill="none" xmlns="http://www.w3.org/2000/svg">
<path d="M0.244141 2.38718C0.244141 1.30007 1.12624 0.417969 2.21334 0.417969C3.29979 0.417969 4.1819 1.30007 4.18254 2.38718C4.18254 3.47426 3.30043 4.37495 2.21334 4.37495C1.12624 4.37495 0.244141 3.47426 0.244141 2.38718Z" fill="#7C808A"/>
<path d="M16.6393 16.8173V16.8167H16.6435V10.8021C16.6435 7.85979 16.0099 5.59336 12.5702 5.59336C10.9165 5.59336 9.807 6.50077 9.35377 7.36111H9.30605V5.86818H6.04476V16.8167H9.44089V11.3953C9.44089 9.9677 9.71154 8.58754 11.4793 8.58754C13.2211 8.58754 13.247 10.2166 13.247 11.4869V16.8173H16.6393Z" fill="#7C808A"/>
<path d="M0.5148 5.86881H3.91478V16.8173H0.5148V5.86881Z" fill="#7C808A"/>
</svg>

<svg width="17" height="17" fill="none" xmlns="http://www.w3.org/2000/svg"><path d="M.244 2.387a1.97 1.97 0 0 1 3.939 0c0 1.087-.883 1.988-1.97 1.988S.244 3.475.244 2.387zm16.395 14.43h.005v-6.015c0-2.942-.634-5.209-4.074-5.209-1.654 0-2.763.908-3.216 1.768h-.048V5.868H6.045v10.949H9.44v-5.422c0-1.427.27-2.807 2.038-2.807 1.742 0 1.768 1.629 1.768 2.899v5.33h3.392zM.515 5.87h3.4v10.948h-3.4V5.87z" fill="#7C808A"/></svg>
